X: 10
T: Foxhunters
R: Slip jig
M: 9/8
L: 1/8
K: Dmaj
|: F3 F^EF G2 E | F2 F FD/E/F E2 D | FGF FED GG/A/B | AFD D2 F E2 D :|
|: BB/=c/B BAG F2 A | B2 E E2 F G2 B | ABc dd/c/B ABc | d2 D D2 F E2 D :|
